X: 2121
T: The Maid that tends the Goats
O: Supposed very ancient
%R: air, strathspey
B: Niel Gow & Sons "Complete Repository" v.2 p.12 #1
Z: 2021 John Chambers <jc:trillian.mit.edu>
M: C
L: 1/8
Q: "SLOW"
K: Am
% - - - - - - - - - -
V: 1 staves=2
|:\
(.E<.E) (.A<.A) c>[EC] [D2B,2] | [EC][EC] ~c>d TB>A Bd | e<e d>e GA c2 | d>B {B}e>d TB>A [A2E2C2] :: (g<e) ~e>d cd E2 |
c<c d<d g>e e>d | eA cG TE>D [D2B,2] | E<E c>d TB>A Bd | (.e<.e) d>e G>A c2 | d>B {B}e>d TB>A [A2E2C2] :|
% - - - - - - - - - -
% Voice 2 preserves the staff layout in the book.
V: 2 clef=bass middle=d
|:\
A2A2 ceg2 | a2[^f2A2] g2A2 | c2Bc G2c2 | d2e2 E2A2 :: c2c'2 c2c'2 |
e2g2 c'3b | a3b c'>gg2 | c2a^f g2=f2 | ec Bc A2c2 | d2e2 E2A2 :|


